assets/svg/app/circle-arrows.svg

<svg width="32" height="32" viewBox="0 0 32 32" fill="none" xmlns="http://www.w3.org/2000/svg">
<path fill-rule="evenodd" clip-rule="evenodd" d="M14.0001 11.0001L14.7501 10.2501C15.1643 9.8359 15.1643 9.16433 14.7501 8.75011C14.3359 8.3359 13.6643 8.3359 13.2501 8.75011L10.7072 11.293C10.3167 11.6835 10.3167 12.3167 10.7072 12.7072L13.2501 15.2501C13.6643 15.6643 14.3359 15.6643 14.7501 15.2501C15.1643 14.8359 15.1643 14.1643 14.7501 13.7501L14.0001 13.0001H21.0001C21.5524 13.0001 22.0001 12.5524 22.0001 12.0001C22.0001 11.4478 21.5524 11.0001 21.0001 11.0001H14.0001Z" fill="url(#arrows-gold_paint0_linear)"/>
<path fill-rule="evenodd" clip-rule="evenodd" d="M18.4142 18.5607L17.6642 17.8107C17.25 17.3964 17.25 16.7249 17.6642 16.3107C18.0784 15.8964 18.75 15.8964 19.1642 16.3107L21.7071 18.8536C22.0976 19.2441 22.0976 19.8772 21.7071 20.2678L19.1642 22.8107C18.75 23.2249 18.0784 23.2249 17.6642 22.8107C17.25 22.3964 17.25 21.7249 17.6642 21.3107L18.4142 20.5607H11.4142C10.8619 20.5607 10.4142 20.1129 10.4142 19.5607C10.4142 19.0084 10.8619 18.5607 11.4142 18.5607H18.4142Z" fill="url(#arrows-gold_paint1_linear)"/>
<circle cx="16" cy="16" r="15" stroke="url(#arrows-gold_paint2_linear)" stroke-width="2"/>
<defs>
<linearGradient id="arrows-gold_paint0_linear" x1="16.2072" y1="8.43945" x2="16.2072" y2="15.5608" gradientUnits="userSpaceOnUse">
<stop stop-color="#BE9461"/>
<stop offset="1" stop-color="#9C6C3C"/>
</linearGradient>
<linearGradient id="arrows-gold_paint1_linear" x1="16.2071" y1="16" x2="16.2071" y2="23.1213" gradientUnits="userSpaceOnUse">
<stop stop-color="#BE9461"/>
<stop offset="1" stop-color="#9C6C3C"/>
</linearGradient>
<linearGradient id="arrows-gold_paint2_linear" x1="16" y1="0" x2="16" y2="32" gradientUnits="userSpaceOnUse">
<stop stop-color="#BE9461"/>
<stop offset="1" stop-color="#9C6C3C"/>
</linearGradient>
</defs>
</svg>

<svg width="32" height="32" fill="none" xmlns="http://www.w3.org/2000/svg">
    <path fill-rule="evenodd" clip-rule="evenodd" d="m14 11 .75-.75a1.06 1.06 0 0 0-1.5-1.5l-2.543 2.543a1 1 0 0 0 0 1.414l2.543 2.543a1.06 1.06 0 0 0 1.5-1.5L14 13h7a1 1 0 1 0 0-2h-7Z" fill="url(#a)"/>
    <path fill-rule="evenodd" clip-rule="evenodd" d="m18.414 18.56-.75-.75a1.06 1.06 0 0 1 1.5-1.5l2.543 2.544a1 1 0 0 1 0 1.414l-2.543 2.543a1.06 1.06 0 0 1-1.5-1.5l.75-.75h-7a1 1 0 0 1 0-2h7Z" fill="url(#b)"/>
    <circle cx="16" cy="16" r="15" stroke="url(#c)" stroke-width="2"/>
    <defs>
        <linearGradient id="a" x1="16.207" y1="8.439" x2="16.207" y2="15.561" gradientUnits="userSpaceOnUse">
            <stop stop-color="#BE9461"/>
            <stop offset="1" stop-color="#9C6C3C"/>
        </linearGradient>
        <linearGradient id="b" x1="16.207" y1="16" x2="16.207" y2="23.121" gradientUnits="userSpaceOnUse">
            <stop stop-color="#BE9461"/>
            <stop offset="1" stop-color="#9C6C3C"/>
        </linearGradient>
        <linearGradient id="c" x1="16" y1="0" x2="16" y2="32" gradientUnits="userSpaceOnUse">
            <stop stop-color="#BE9461"/>
            <stop offset="1" stop-color="#9C6C3C"/>
        </linearGradient>
    </defs>
</svg>
